imgs/ilustracao.svg

<svg width="500" height="500" fill="none" xmlns="http://www.w3.org/2000/svg"><g clip-path="url(#a)"><mask id="b" style="mask-type:alpha" maskUnits="userSpaceOnUse" x="0" y="0" width="501" height="500"><path d="M250 500C111.811 500 0 388.023 0 250 0 111.811 111.977 0 250 0c138.189 0 250 111.977 250 250 .165 138.189-111.811 250-250 250Z" fill="#B5E2DC"/></mask><g mask="url(#b)"><path d="M250 500C111.811 500 0 388.023 0 250 0 111.811 111.977 0 250 0c138.189 0 250 111.977 250 250 .165 138.189-111.811 250-250 250Z" fill="#B5E2DC"/><path d="M397.815 410.438c-1.224.874-2.623 1.748-3.846 2.623-1.399.874-2.623 1.748-4.021 2.447-1.224.699-2.273 1.399-3.497 2.098-.175.175-.349.175-.524.35-4.021 2.447-8.217 4.72-12.413 6.818a39.624 39.624 0 0 1-3.846 1.923s-.175.175-.35.175l-4.196 2.098c-2.797 1.398-5.769 2.622-8.566 3.846-1.399.699-2.972 1.224-4.371 1.748-1.398.525-2.972 1.224-4.37 1.748-1.399.525-2.972 1.224-4.371 1.749h-.175c-1.398.524-2.972 1.049-4.37 1.573-3.147 1.049-6.469 2.098-9.616 3.147-1.049.35-2.272.699-3.321 1.049a104.64 104.64 0 0 1-9.966 2.622c-1.224.35-2.447.525-3.846.874-3.147.7-6.468 1.399-9.615 2.098-.699.175-1.224.175-1.923.35-1.049.175-2.273.35-3.322.524-1.573.175-2.972.525-4.545.7-.699.174-1.399.174-2.098.349-.874.175-1.924.35-2.973.35-2.796.35-5.769.699-8.566 1.049-.874.175-1.923.175-2.797.35h-.175c-1.224.174-2.448.174-3.671.349-1.224.175-2.448.175-3.672.175-.699 0-1.573.175-2.272.175-1.399 0-2.623.175-3.847.175-1.748 0-3.321.174-5.069.174h-8.742c-73.601-1.048-140.034-32.342-187.237-81.993 0 0 0-.174-.175-.174 5.42-10.665 25.524-29.895 46.504-45.805 26.573-20.104 64.16-32.517 64.16-32.517s24.651-4.021 116.084 15.035c69.756 14.685 99.476 74.301 109.616 101.748Z" fill="#FEE4BF"/><path d="M307.605 357.117c-3.671 18.007-27.448 28.671-67.483 12.587-49.126-19.931-68.007-76.049-68.007-76.049-2.622-40.21-8.741-74.65-8.741-74.65 56.818-4.895 123.951 61.538 123.951 61.538l7.692 32.867c.699 2.797 2.099 5.245 4.196 6.993 3.672 6.294 10.84 25.175 8.392 36.714Z" fill="#FEE4BF"/><path d="M299.213 320.578c-33.391-1.748-58.042-6.643-84.44-54.021 22.377 19.755 48.776 27.273 76.573 30.769l3.672 16.084c.698 2.972 2.097 5.42 4.195 7.168Z" fill="#EFBD9C"/><path d="M368.269 109.914c3.147 14.685 4.721 26.573-3.846 65.734-8.566 39.161 7.867 78.322-33.392 114.161-27.797 24.126-76.398 28.671-115.21 2.273-13.112-8.917-25.174-21.329-34.965-37.588-7.692-12.762-16.608-24.825-26.573-35.839-13.811-15.035-30.42-45.28-22.203-98.776 13.287-87.063 99.476-97.028 150.35-87.413 50.874 9.615 77.273 38.637 85.839 77.448Z" fill="#FEE4BF"/><path d="M200.961 178.27s-5.419-26.224-30.944-23.077c-22.028 2.797-29.72 55.595 20.28 70.28" fill="#FEE4BF"/><path d="M188.724 201.522s-6.294-4.021-5.594-11.014c1.048-8.217 0-13.287-3.847-14.86-9.615-4.021-11.538 7.168-11.188 8.566" stroke="#423232" stroke-width="3" stroke-miterlimit="10" stroke-linecap="round" stroke-linejoin="round"/><path d="M322.115 218.48s6.643.35 12.937-7.168c3.497-4.195 6.469-9.44 4.546-11.014-1.924-1.748-33.566 3.147-35.664 7.343-2.098 4.196 10.139 10.839 18.181 10.839Z" fill="#EFBD9C"/><path d="M327.36 159.739s.349 16.608 11.014 35.14c4.72 8.217-2.447 21.678-18.007 23.951" stroke="#423232" stroke-width="3" stroke-miterlimit="10" stroke-linecap="round" stroke-linejoin="round"/><path d="M354.807 256.767c0 .175 0 .175 0 0-.174.175-.174.175 0 0-4.37 11.364-11.538 22.203-23.776 32.867-27.797 24.126-76.398 28.671-115.209 2.273a112.407 112.407 0 0 1-12.588-9.965 75.491 75.491 0 0 1-7.343-11.014c-12.587-23.602-7.168-45.63-7.168-45.63s7.168.175 15.735 16.958c7.168 13.986 34.79 13.462 46.154-12.762 12.587-29.196 44.056-16.433 51.224-13.636 7.168 2.797 18.356 2.797 18.356 2.797 28.322-.35 19.755 18.706 22.727 29.196 4.371 14.335 11.888 8.916 11.888 8.916Z" fill="#423232"/><path d="M411.266 369.322c-24.483-29.088-62.414-41.168-83.276-48.32-1.724-7.948-5.001-16.69-10.173-25.114-7.931 4.45-17.068 7.788-26.551 9.537l1.379 5.245c.69 2.543 4.138 14.305-1.207 29.405-4.483 12.716-22.586 18.438-53.276 5.563-59.827-24.954-66.724-53.088-66.724-53.088-1.034-15.259-2.758-29.564-4.31-41.167-18.621 3.814-40.173 11.603-51.897 27.974-14.483 20.028-19.828 40.373-18.448 56.586-25.172 14.782-64.138 37.193-76.897 77.248-16.552 52.135-13.793 84.083-13.793 84.083h445.518c-.518.159-7.069-88.374-40.345-127.952Z" fill="#FFB845"/><path d="M144.886 317.187s10.517 37.67 56.551 63.738M327.818 321.001s12.241 48.797-14.483 71.209M244.714 384.74s-8.965 24.159-6.552 40.849M299.714 383.309s6.724 13.51 11.552 34.968M96.438 336.102s14.138 53.088 98.276 68.665" stroke="#423232" stroke-width="3" stroke-miterlimit="10" stroke-linecap="round" stroke-linejoin="round"/><path d="m239.714 429.245-7.586-.636c-2.759-.318-4.828-2.702-4.31-5.245l2.586-11.921c.689-3.338 4.138-5.722 7.758-5.246 3.621.318 6.552 3.179 6.552 6.676l.172 12.239c0 2.384-2.413 4.451-5.172 4.133ZM318.852 421.933l-7.241 2.384c-2.759.954-5.69-.635-6.207-3.179l-3.104-11.762c-.862-3.338 1.035-6.676 4.656-7.947 3.448-1.113 7.413.318 8.965 3.338l5.69 10.967c1.207 2.384-.001 5.245-2.759 6.199Z" fill="#fff"/><path d="M90.576 497.433s-1.552-35.445-6.724-44.982M394.886 418.277s9.655 49.91 5.862 79.156M367.128 466.279s-25.517 3.497-47.931 2.544" stroke="#544D4D" stroke-width="3" stroke-miterlimit="10" stroke-linecap="round" stroke-linejoin="round"/><path d="M294.842 196.458h-40.733a19.175 19.175 0 0 1-19.231-19.231v-16.608a19.176 19.176 0 0 1 19.231-19.231h40.733a19.176 19.176 0 0 1 19.231 19.231v16.608c0 10.665-8.741 19.231-19.231 19.231ZM365.122 141.388h-20.105c-6.993 0-12.762 5.77-12.762 12.763v15.209c2.448 8.742 5.944 17.133 11.189 24.651.525 0 1.049.175 1.573.175h20.105c6.993 0 12.762-5.77 12.762-12.763v-27.272c.175-7.168-5.594-12.763-12.762-12.763Z" stroke="#423232" stroke-width="3" stroke-miterlimit="10" stroke-linecap="round" stroke-linejoin="round"/><path d="M314.073 157.297c5.944-.699 13.462-1.223 19.755-.524M234.878 158.521l-40.56 1.398" stroke="#423232" stroke-width="3" stroke-miterlimit="10" stroke-linecap="round" stroke-linejoin="round"/><path d="M380.604 74.299c-12.413 44.93-47.902 36.014-82.168 25.175-120.804-38.287-99.999 78.671-101.573 76.573-3.846-7.343-12.063-16.434-27.623-14.51-20.279 2.622-28.496 47.552 9.441 66.083-.874 8.042-6.643 14.861-13.287 19.756-17.832-15.035-45.454-44.056-55.769-86.014-3.846-15.385-2.273-28.147-.699-38.112 5.07-30.944 24.3-37.413 24.3-37.413.7-32.692 34.791-68.706 92.133-67.482 57.518.874 167.658 11.014 155.245 55.944Z" fill="#423232"/><path d="M382.003 128.32c-1.749 11.363-6.644 20.105-13.462 26.573 2.622-19.056 1.224-28.147-1.049-38.811-4.895-21.853-15.384-40.734-32.867-54.72 8.741-.7 17.657 1.224 25.699 6.293 0 0 11.539 8.042 15.909 33.917 1.399 7.517 7.343 15.559 5.77 26.748Z" fill="#423232"/><path d="M239.346 18.53s66.433-25.875 89.86-17.308c19.405 7.168 12.412 27.098 12.412 27.098s33.217-8.392 51.224 13.286c18.007 21.679-2.797 49.826-14.685 60.14 0 0 18.706 4.896 16.783 20.805-2.273 19.93-26.573 32.167-26.573 32.167s8.391-17.132 7.168-33.566c-1.224-16.434.699-28.147-11.364-40.035-12.063-12.063-40.734-.7-71.678-16.084-30.77-15.385-53.147-46.504-53.147-46.504Z" fill="#423232"/><path d="M181.58 179.672s-13.986-2.098-12.937 17.483c.524 9.965.524 15.384.349 18.181-.175 1.923 1.049 3.672 2.797 4.371 2.098.874 4.371 0 5.42-2.098 1.573-2.797 3.322-6.643 3.322-9.79 0-5.245 5.594-9.965 5.594-9.965s-5.07-4.371-4.545-18.182Z" fill="#fff"/><path d="M223.888 516.735c-1.399-1.575-56.294-95.455-48.077-130.769 5.594-24.301-1.748-52.273-8.217-76.923-2.622-10.14-5.07-19.581-6.468-27.972-2.448-14.511-.7-28.322 5.244-41.084 6.469-14.336 5.42-26.749 5.42-26.923l3.496-.35c0 .525 1.049 13.636-5.769 28.671-5.594 12.063-7.168 25.35-4.895 39.161 1.399 8.217 3.846 17.658 6.469 27.797 6.643 25 13.986 53.497 8.216 78.672-7.692 33.566 47.028 127.445 47.378 127.795l-2.797 1.925Z" fill="#fff"/><path d="M169.168 207.294c.175 3.846 0 6.469 0 8.042-.175 1.923 1.049 3.672 2.797 4.371 2.098.874 4.371 0 5.42-2.098 1.573-2.797 3.321-6.643 3.321-9.79v-.7c-3.671 1.399-7.867 2.448-11.538.175Z" fill="#E5E5E5"/><path d="M333.678 323.553c-1.224 8.042-1.399 20.804-1.748 35.664-.525 28.672-17.483 140.385-25.7 158.043l-3.147-1.4c7.867-17.132 24.826-128.321 25.35-156.643.35-14.86.524-27.797 1.748-36.188 2.622-17.658.7-30.944-.349-36.539.524-.524 1.048-.874 1.573-1.398.524-.35.874-.875 1.398-1.224 1.049 4.545 4.022 19.056.875 39.685Z" fill="#fff"/><path d="M278.36 162.912v.349l-.175 4.895c-.175 4.196-3.671 7.343-7.867 7.168-4.196-.175-7.343-3.846-6.993-7.867l.175-4.895c0-.874.35-1.923.699-2.622l13.986.699c0 .699.175 1.398.175 2.273ZM351.435 166.758l-.174 4.545c-.175 3.846-3.497 6.818-7.343 6.644-3.846-.175-6.818-3.497-6.643-7.343l.174-4.546c0-.874.175-1.748.525-2.447l13.112.524c.349.875.349 1.749.349 2.623ZM295.842 138.96c3.846.524 6.818-3.496 5.419-7.343-.699-2.098-1.923-4.021-3.846-5.244-5.944-3.672-28.147-4.021-39.86 4.37-10.315 7.693 20.804 5.769 38.287 8.217ZM344.267 140.884c-3.146 0-5.069-4.021-3.496-7.343.875-1.748 2.098-3.322 3.847-4.196 5.419-2.622 19.93-1.049 26.398 7.867 5.769 7.867-12.238 3.497-26.749 3.672Z" fill="#423232"/><path d="m289.723 160.988-11.714-.524-13.986-.525-3.147-.174M358.779 164.485l-7.693-.35-13.112-.524h-.524" stroke="#423232" stroke-width="3" stroke-miterlimit="10" stroke-linecap="round" stroke-linejoin="round"/><path d="M302.593 246.372c-7.627 4.507-19.76 1.733-28.6-4.333" stroke="#FEE4BF" stroke-width="2.468" stroke-miterlimit="10" stroke-linecap="round" stroke-linejoin="round"/></g></g><defs><clipPath id="a"><path fill="#fff" d="M0 0h500v500H0z"/></clipPath></defs></svg>

<svg width="500" height="500" viewBox="0 0 500 500" fill="none" xmlns="http://www.w3.org/2000/svg">
<g clip-path="url(#clip0_27_17)">
<mask id="mask0_27_17" style="mask-type:alpha" maskUnits="userSpaceOnUse" x="0" y="0" width="501" height="500">
<path d="M250 500C111.811 500 0 388.023 0 250C0 111.811 111.977 0 250 0C388.189 0 500 111.977 500 250C500.165 388.189 388.189 500 250 500Z" fill="#B5E2DC"/>
</mask>
<g mask="url(#mask0_27_17)">
<path d="M250 500C111.811 500 0 388.023 0 250C0 111.811 111.977 0 250 0C388.189 0 500 111.977 500 250C500.165 388.189 388.189 500 250 500Z" fill="#B5E2DC"/>
<path d="M397.815 410.438C396.591 411.312 395.192 412.186 393.969 413.061C392.57 413.935 391.346 414.809 389.948 415.508C388.724 416.207 387.675 416.907 386.451 417.606C386.276 417.781 386.102 417.781 385.927 417.956C381.906 420.403 377.71 422.676 373.514 424.774C372.29 425.473 370.892 426.172 369.668 426.697C369.668 426.697 369.493 426.872 369.318 426.872C367.92 427.571 366.521 428.27 365.122 428.97C362.325 430.368 359.353 431.592 356.556 432.816C355.157 433.515 353.584 434.04 352.185 434.564C350.787 435.089 349.213 435.788 347.815 436.312C346.416 436.837 344.843 437.536 343.444 438.061C343.444 438.061 343.444 438.061 343.269 438.061C341.871 438.585 340.297 439.11 338.899 439.634C335.752 440.683 332.43 441.732 329.283 442.781C328.234 443.131 327.011 443.48 325.962 443.83C322.64 444.879 319.318 445.753 315.996 446.452C314.772 446.802 313.549 446.977 312.15 447.326C309.003 448.026 305.682 448.725 302.535 449.424C301.836 449.599 301.311 449.599 300.612 449.774C299.563 449.949 298.339 450.124 297.29 450.298C295.717 450.473 294.318 450.823 292.745 450.998C292.046 451.172 291.346 451.172 290.647 451.347C289.773 451.522 288.723 451.697 287.674 451.697C284.878 452.047 281.905 452.396 279.108 452.746C278.234 452.921 277.185 452.921 276.311 453.096H276.136C274.912 453.27 273.688 453.27 272.465 453.445C271.241 453.62 270.017 453.62 268.793 453.62C268.094 453.62 267.22 453.795 266.521 453.795C265.122 453.795 263.898 453.97 262.674 453.97C260.926 453.97 259.353 454.144 257.605 454.144C255.857 454.144 254.283 454.144 252.535 454.144C251.311 454.144 250.087 454.144 248.863 454.144C175.262 453.096 108.829 421.802 61.626 372.151C61.626 372.151 61.626 371.977 61.451 371.977C66.8705 361.312 86.9755 342.082 107.955 326.172C134.528 306.068 172.115 293.655 172.115 293.655C172.115 293.655 196.766 289.634 288.199 308.69C357.955 323.375 387.675 382.991 397.815 410.438Z" fill="#FEE4BF"/>
<path d="M307.605 357.117C303.934 375.124 280.157 385.788 240.122 369.704C190.996 349.773 172.115 293.655 172.115 293.655C169.493 253.445 163.374 219.005 163.374 219.005C220.192 214.11 287.325 280.543 287.325 280.543L295.017 313.41C295.716 316.207 297.116 318.655 299.213 320.403C302.885 326.697 310.053 345.578 307.605 357.117Z" fill="#FEE4BF"/>
<path d="M299.213 320.578C265.822 318.83 241.171 313.935 214.773 266.557C237.15 286.312 263.549 293.83 291.346 297.326L295.018 313.41C295.716 316.382 297.115 318.83 299.213 320.578Z" fill="#EFBD9C"/>
<path d="M368.269 109.914C371.416 124.599 372.99 136.487 364.423 175.648C355.857 214.809 372.29 253.97 331.031 289.809C303.234 313.935 254.633 318.48 215.821 292.082C202.709 283.165 190.647 270.753 180.856 254.494C173.164 241.732 164.248 229.669 154.283 218.655C140.472 203.62 123.863 173.375 132.08 119.879C145.367 32.8157 231.556 22.8507 282.43 32.4661C333.304 42.0814 359.703 71.1026 368.269 109.914Z" fill="#FEE4BF"/>
<path d="M200.961 178.27C200.961 178.27 195.542 152.046 170.017 155.193C147.989 157.99 140.297 210.788 190.297 225.473" fill="#FEE4BF"/>
<path d="M188.724 201.522C188.724 201.522 182.43 197.501 183.13 190.508C184.178 182.291 183.13 177.221 179.283 175.648C169.668 171.627 167.745 182.816 168.095 184.214" stroke="#423232" stroke-width="3" stroke-miterlimit="10" stroke-linecap="round" stroke-linejoin="round"/>
<path d="M322.115 218.48C322.115 218.48 328.758 218.83 335.052 211.312C338.549 207.117 341.521 201.872 339.598 200.298C337.674 198.55 306.032 203.445 303.934 207.641C301.836 211.837 314.073 218.48 322.115 218.48Z" fill="#EFBD9C"/>
<path d="M327.36 159.739C327.36 159.739 327.709 176.347 338.374 194.879C343.094 203.096 335.927 216.557 320.367 218.83" stroke="#423232" stroke-width="3" stroke-miterlimit="10" stroke-linecap="round" stroke-linejoin="round"/>
<path d="M354.807 256.767C354.807 256.942 354.807 256.942 354.807 256.767C354.633 256.942 354.633 256.942 354.807 256.767C350.437 268.131 343.269 278.97 331.031 289.634C303.234 313.76 254.633 318.305 215.822 291.907C211.451 288.935 207.255 285.613 203.234 281.942C200.437 278.445 197.989 274.774 195.891 270.928C183.304 247.326 188.723 225.298 188.723 225.298C188.723 225.298 195.891 225.473 204.458 242.256C211.626 256.242 239.248 255.718 250.612 229.494C263.199 200.298 294.668 213.061 301.836 215.858C309.004 218.655 320.192 218.655 320.192 218.655C348.514 218.305 339.947 237.361 342.919 247.851C347.29 262.186 354.807 256.767 354.807 256.767Z" fill="#423232"/>
<path d="M411.266 369.322C386.783 340.234 348.852 328.154 327.99 321.002C326.266 313.054 322.989 304.312 317.817 295.888C309.886 300.338 300.749 303.676 291.266 305.425L292.645 310.67C293.335 313.213 296.783 324.975 291.438 340.075C286.955 352.791 268.852 358.513 238.162 345.638C178.335 320.684 171.438 292.55 171.438 292.55C170.404 277.291 168.68 262.986 167.128 251.383C148.507 255.197 126.955 262.986 115.231 279.357C100.748 299.385 95.4035 319.73 96.7825 335.943C71.6105 350.725 32.6448 373.136 19.8862 413.191C3.33445 465.326 6.09305 497.274 6.09305 497.274H451.611C451.093 497.433 444.542 408.9 411.266 369.322Z" fill="#FFB845"/>
<path d="M144.886 317.187C144.886 317.187 155.403 354.857 201.437 380.925" stroke="#423232" stroke-width="3" stroke-miterlimit="10" stroke-linecap="round" stroke-linejoin="round"/>
<path d="M327.818 321.001C327.818 321.001 340.059 369.798 313.335 392.21" stroke="#423232" stroke-width="3" stroke-miterlimit="10" stroke-linecap="round" stroke-linejoin="round"/>
<path d="M244.714 384.74C244.714 384.74 235.749 408.899 238.162 425.589" stroke="#423232" stroke-width="3" stroke-miterlimit="10" stroke-linecap="round" stroke-linejoin="round"/>
<path d="M299.714 383.309C299.714 383.309 306.438 396.819 311.266 418.277" stroke="#423232" stroke-width="3" stroke-miterlimit="10" stroke-linecap="round" stroke-linejoin="round"/>
<path d="M96.438 336.102C96.438 336.102 110.576 389.19 194.714 404.767" stroke="#423232" stroke-width="3" stroke-miterlimit="10" stroke-linecap="round" stroke-linejoin="round"/>
<path d="M239.714 429.245L232.128 428.609C229.369 428.291 227.3 425.907 227.818 423.364L230.404 411.443C231.093 408.105 234.542 405.721 238.162 406.197C241.783 406.515 244.714 409.376 244.714 412.873L244.886 425.112C244.886 427.496 242.473 429.563 239.714 429.245Z" fill="white"/>
<path d="M318.852 421.933L311.611 424.317C308.852 425.271 305.921 423.682 305.404 421.138L302.3 409.376C301.438 406.038 303.335 402.7 306.956 401.429C310.404 400.316 314.369 401.747 315.921 404.767L321.611 415.734C322.818 418.118 321.61 420.979 318.852 421.933Z" fill="white"/>
<path d="M90.576 497.433C90.576 497.433 89.024 461.988 83.8515 452.451" stroke="#544D4D" stroke-width="3" stroke-miterlimit="10" stroke-linecap="round" stroke-linejoin="round"/>
<path d="M394.886 418.277C394.886 418.277 404.541 468.187 400.748 497.433" stroke="#544D4D" stroke-width="3" stroke-miterlimit="10" stroke-linecap="round" stroke-linejoin="round"/>
<path d="M367.128 466.279C367.128 466.279 341.611 469.776 319.197 468.823" stroke="#544D4D" stroke-width="3" stroke-miterlimit="10" stroke-linecap="round" stroke-linejoin="round"/>
<path d="M294.842 196.458H254.109C243.444 196.458 234.878 187.892 234.878 177.227V160.619C234.878 149.955 243.444 141.388 254.109 141.388H294.842C305.507 141.388 314.073 149.955 314.073 160.619V177.227C314.073 187.892 305.332 196.458 294.842 196.458Z" stroke="#423232" stroke-width="3" stroke-miterlimit="10" stroke-linecap="round" stroke-linejoin="round"/>
<path d="M365.122 141.388H345.017C338.024 141.388 332.255 147.158 332.255 154.151V169.36C334.703 178.102 338.199 186.493 343.444 194.011C343.969 194.011 344.493 194.186 345.017 194.186H365.122C372.115 194.186 377.884 188.416 377.884 181.423V154.151C378.059 146.983 372.29 141.388 365.122 141.388Z" stroke="#423232" stroke-width="3" stroke-miterlimit="10" stroke-linecap="round" stroke-linejoin="round"/>
<path d="M314.073 157.297C320.017 156.598 327.535 156.074 333.828 156.773" stroke="#423232" stroke-width="3" stroke-miterlimit="10" stroke-linecap="round" stroke-linejoin="round"/>
<path d="M234.878 158.521L194.318 159.919" stroke="#423232" stroke-width="3" stroke-miterlimit="10" stroke-linecap="round" stroke-linejoin="round"/>
<path d="M380.604 74.2986C368.191 119.229 332.702 110.313 298.436 99.4736C177.632 61.1866 198.437 178.145 196.863 176.047C193.017 168.704 184.8 159.613 169.24 161.537C148.961 164.159 140.744 209.089 178.681 227.62C177.807 235.662 172.038 242.481 165.394 247.376C147.562 232.341 119.94 203.32 109.625 161.362C105.779 145.977 107.352 133.215 108.926 123.25C113.996 92.3056 133.226 85.8371 133.226 85.8371C133.926 53.1446 168.017 17.1308 225.359 18.3546C282.877 19.2287 393.017 29.3686 380.604 74.2986Z" fill="#423232"/>
<path d="M382.003 128.32C380.254 139.683 375.359 148.425 368.541 154.893C371.163 135.837 369.765 126.746 367.492 116.082C362.597 94.2286 352.108 75.3476 334.625 61.3616C343.366 60.6621 352.282 62.5856 360.324 67.6551C360.324 67.6551 371.863 75.6971 376.233 101.572C377.632 109.089 383.576 117.131 382.003 128.32Z" fill="#423232"/>
<path d="M239.346 18.5295C239.346 18.5295 305.779 -7.34465 329.206 1.22177C348.611 8.3896 341.618 28.3197 341.618 28.3197C341.618 28.3197 374.835 19.9281 392.842 41.6064C410.849 63.2846 390.045 91.4316 378.157 101.746C378.157 101.746 396.863 106.642 394.94 122.551C392.667 142.481 368.367 154.718 368.367 154.718C368.367 154.718 376.758 137.586 375.535 121.152C374.311 104.718 376.234 93.0051 364.171 81.1171C352.108 69.054 323.437 80.4175 292.493 65.0331C261.723 49.6483 239.346 18.5295 239.346 18.5295Z" fill="#423232"/>
<path d="M181.58 179.672C181.58 179.672 167.594 177.574 168.643 197.155C169.167 207.12 169.167 212.539 168.992 215.336C168.817 217.259 170.041 219.008 171.789 219.707C173.887 220.581 176.16 219.707 177.209 217.609C178.782 214.812 180.531 210.966 180.531 207.819C180.531 202.574 186.125 197.854 186.125 197.854C186.125 197.854 181.055 193.483 181.58 179.672Z" fill="white"/>
<path d="M223.888 516.735C222.489 515.16 167.594 421.28 175.811 385.966C181.405 361.665 174.063 333.693 167.594 309.043C164.972 298.903 162.524 289.462 161.126 281.071C158.678 266.56 160.426 252.749 166.37 239.987C172.839 225.651 171.79 213.238 171.79 213.064L175.286 212.714C175.286 213.239 176.335 226.35 169.517 241.385C163.923 253.448 162.349 266.735 164.622 280.546C166.021 288.763 168.468 298.204 171.091 308.343C177.734 333.343 185.077 361.84 179.307 387.015C171.615 420.581 226.335 514.46 226.685 514.81L223.888 516.735Z" fill="white"/>
<path d="M169.168 207.294C169.343 211.14 169.168 213.763 169.168 215.336C168.993 217.259 170.217 219.008 171.965 219.707C174.063 220.581 176.336 219.707 177.385 217.609C178.958 214.812 180.706 210.966 180.706 207.819C180.706 207.644 180.706 207.294 180.706 207.119C177.035 208.518 172.839 209.567 169.168 207.294Z" fill="#E5E5E5"/>
<path d="M333.678 323.553C332.454 331.595 332.279 344.357 331.93 359.217C331.405 387.889 314.447 499.602 306.23 517.26L303.083 515.86C310.95 498.728 327.909 387.539 328.433 359.217C328.783 344.357 328.957 331.42 330.181 323.029C332.803 305.371 330.881 292.085 329.832 286.49C330.356 285.966 330.88 285.616 331.405 285.092C331.929 284.742 332.279 284.217 332.803 283.868C333.852 288.413 336.825 302.924 333.678 323.553Z" fill="white"/>
<path d="M278.36 162.912C278.36 163.086 278.36 163.261 278.36 163.261L278.185 168.156C278.01 172.352 274.514 175.499 270.318 175.324C266.122 175.149 262.975 171.478 263.325 167.457L263.5 162.562C263.5 161.688 263.85 160.639 264.199 159.94L278.185 160.639C278.185 161.338 278.36 162.037 278.36 162.912Z" fill="#423232"/>
<path d="M351.435 166.758L351.261 171.303C351.086 175.149 347.764 178.121 343.918 177.947C340.072 177.772 337.1 174.45 337.275 170.604L337.449 166.058C337.449 165.184 337.624 164.31 337.974 163.611L351.086 164.135C351.435 165.01 351.435 165.884 351.435 166.758Z" fill="#423232"/>
<path d="M295.842 138.96C299.688 139.484 302.66 135.464 301.261 131.617C300.562 129.519 299.338 127.596 297.415 126.373C291.471 122.701 269.268 122.352 257.555 130.743C247.24 138.436 278.359 136.512 295.842 138.96Z" fill="#423232"/>
<path d="M344.267 140.884C341.121 140.884 339.198 136.863 340.771 133.541C341.646 131.793 342.869 130.219 344.618 129.345C350.037 126.723 364.548 128.296 371.016 137.212C376.785 145.079 358.778 140.709 344.267 140.884Z" fill="#423232"/>
<path d="M289.723 160.988L278.009 160.464L264.023 159.939L260.876 159.765" stroke="#423232" stroke-width="3" stroke-miterlimit="10" stroke-linecap="round" stroke-linejoin="round"/>
<path d="M358.779 164.485L351.086 164.135L337.974 163.611H337.45" stroke="#423232" stroke-width="3" stroke-miterlimit="10" stroke-linecap="round" stroke-linejoin="round"/>
<path d="M302.593 246.372C294.966 250.879 282.833 248.105 273.993 242.039" stroke="#FEE4BF" stroke-width="2.4681" stroke-miterlimit="10" stroke-linecap="round" stroke-linejoin="round"/>
</g>
</g>
<defs>
<clipPath id="clip0_27_17">
<rect width="500" height="500" fill="white"/>
</clipPath>
</defs>
</svg>
